packages/kaspersky-hexa-ui-icons/src/iconsSVGs/16/Home.svg

<svg width="16" height="16" viewBox="0 0 16 16" fill="none" xmlns="http://www.w3.org/2000/svg">
<path fill-rule="evenodd" clip-rule="evenodd" d="M8.33265 1.87709C8.1075 1.7192 7.80735 1.72008 7.58313 1.8793L1.12382 6.46594C0.831122 6.67378 0.762331 7.07955 0.970171 7.37225C1.17801 7.66495 1.58378 7.73374 1.87648 7.5259L2.42425 7.13694V12.1909C2.42425 13.323 3.34207 14.2409 4.47425 14.2409H11.526C12.6582 14.2409 13.576 13.3231 13.576 12.1909V7.14176L14.127 7.52811C14.4209 7.73422 14.8262 7.66303 15.0323 7.36911C15.2384 7.07519 15.1673 6.66984 14.8733 6.46373L8.33265 1.87709ZM12.276 6.23014L7.9618 3.20481L3.72425 6.21383V12.1909C3.72425 12.6051 4.06003 12.9409 4.47425 12.9409H11.526C11.9402 12.9409 12.276 12.6051 12.276 12.1909V6.23014Z" fill="black"/>
</svg>

<svg xmlns="http://www.w3.org/2000/svg" width="16" height="16" fill="none" viewBox="0 0 16 16"><path fill="#000" fill-rule="evenodd" d="M8.3325 1.877a.65.65 0 0 0-.7495.0022L1.1237 6.4658a.65.65 0 1 0 .7527 1.06l.5477-.389v5.0539c0 1.1322.9178 2.05 2.05 2.05h7.0518c1.1322 0 2.05-.9178 2.05-2.05v-5.049l.5509.3863a.65.65 0 1 0 .7464-1.0644zM12.276 6.23 7.9617 3.2047 3.724 6.2137v5.977a.75.75 0 0 0 .75.75h7.0518a.75.75 0 0 0 .75-.75z"/></svg>
